_inc/images/systems/logos/auto-at4players.svg

<svg viewBox="0 0 200 40" xmlns="http://www.w3.org/2000/svg">
    <path d="M66.863 25.433h-3.72l-.78 4.53h-5.7l3.3-18.75h9c3.4 0 5.1 1.58 5.1 4.74 0 1.5-.21 2.855-.63 4.065-.42 1.21-.885 2.17-1.395 2.88s-1.21 1.31-2.1 1.8c-.89.49-1.915.735-3.075.735Zm-2.07-9.42-.81 4.62h1.32c.68 0 1.195-.075 1.545-.225.35-.15.575-.495.675-1.035.26-1.48.39-2.29.39-2.43 0-.38-.15-.63-.45-.75-.3-.12-.75-.18-1.35-.18Zm20.459 13.95h-11.4l3.3-18.75h5.7l-2.46 13.95h5.7Zm4.139 0h-6l7.89-18.75h8.82l1.32 18.75h-6.03l-.12-2.97h-4.71Zm5.13-12.99-2.1 5.25h2.4v-5.25Zm14.489-5.76.39 6.6h.21l2.76-6.6h6.3l-7.56 13.65-.87 5.1h-5.7l.87-5.1-2.7-13.65Zm20.099 11.67h-5.7l-.39 2.28h6.99l-.84 4.8h-12.69l3.3-18.75h12.54l-1.56 4.8h-6.15l-.42 2.52h5.7Zm18.809 7.08h-6.27l-1.38-5.58h-1.23l-.96 5.58h-5.7l3.3-18.75h9c3.42 0 5.13 1.53 5.13 4.59 0 1.26-.19 2.46-.57 3.6-.7 2.16-1.8 3.6-3.3 4.32Zm-7.41-13.95-.66 3.75h1.32c.68 0 1.195-.075 1.545-.225.35-.15.59-.58.72-1.29.13-.71.195-1.145.195-1.305 0-.4-.155-.655-.465-.765-.31-.11-.815-.165-1.515-.165Zm9.298 13.62 1.68-4.95c1.68.46 3.22.69 4.62.69s2.53-.06 3.39-.18l.24-1.5-2.49-.24c-1.9-.18-3.245-.61-4.035-1.29s-1.185-1.64-1.185-2.88c0-.54.06-1.14.18-1.8.46-2.56 1.295-4.32 2.505-5.28s3.085-1.44 5.625-1.44 4.78.25 6.72.75l-1.56 4.8c-1.74-.3-3.14-.45-4.2-.45s-1.96.05-2.7.15l-.24 1.47 2.01.21c2.04.22 3.49.705 4.35 1.455.86.75 1.29 1.755 1.29 3.015 0 1.28-.28 2.6-.84 3.96-.28.7-.585 1.285-.915 1.755-.33.47-.75.87-1.26 1.2-.51.33-.975.58-1.395.75-.42.17-.95.295-1.59.375-.94.14-2.09.21-3.45.21-2.48 0-4.73-.26-6.75-.78Z" style="white-space:pre;fill:#fff"/>
    <path d="M38.742 13.182c1.8 0 3.257-1.457 3.257-3.257a3.255 3.255 0 0 0-3.257-3.256 3.255 3.255 0 0 0-3.256 3.256c0 1.8 1.457 3.257 3.256 3.257Zm2.234.93h-.242a4.574 4.574 0 0 1-1.992.466 4.583 4.583 0 0 1-1.991-.466h-.241a3.351 3.351 0 0 0-3.35 3.35v.837c0 .77.625 1.396 1.396 1.396h8.373c.771 0 1.396-.626 1.396-1.396v-.837a3.35 3.35 0 0 0-3.349-3.35Zm6.141-.93a2.792 2.792 0 1 0-.004-5.584 2.792 2.792 0 0 0 .004 5.584Zm1.395.93h-.11c-.405.14-.832.233-1.285.233-.454 0-.882-.093-1.286-.233h-.11c-.593 0-1.14.172-1.62.448a4.257 4.257 0 0 1 1.154 2.902v1.116c0 .065-.014.126-.017.186h5.135c.77 0 1.395-.626 1.395-1.395a3.254 3.254 0 0 0-3.256-3.257Z" style="fill:#ddd"/>
    <path d="M38.655 26.666a3.33 3.33 0 0 1 3.333 3.333 3.33 3.33 0 0 1-3.333 3.332 3.331 3.331 0 0 1-3.332-3.332 3.331 3.331 0 0 1 3.332-3.333Zm2.286-.952h-.248a4.673 4.673 0 0 0-2.038-.476c-.731 0-1.416.178-2.038.476h-.246a3.429 3.429 0 0 1-3.428-3.428v-.857c0-.788.64-1.428 1.428-1.428h8.569c.789 0 1.428.64 1.428 1.428v.857a3.428 3.428 0 0 1-3.427 3.428Zm6.284.952a2.857 2.857 0 1 1-.003 5.715 2.857 2.857 0 0 1 .003-5.715Zm1.428-.952h-.113a4.006 4.006 0 0 0-1.315-.238c-.465 0-.902.095-1.316.238h-.112a3.314 3.314 0 0 1-1.658-.458 4.354 4.354 0 0 0 1.181-2.97v-1.142c0-.066-.014-.129-.017-.191h5.254a1.43 1.43 0 0 1 1.428 1.429 3.33 3.33 0 0 1-3.332 3.332Z" style="fill:#ddd" transform="rotate(180 42.464 26.666)"/>
</svg>

<?xml version="1.0" encoding="utf-8"?>
<svg version="1.1" id="2players" x="0px" y="0px" viewBox="0 0 200 40" xmlns="http://www.w3.org/2000/svg">
  <path d="M 66.863 25.433 L 63.143 25.433 L 62.363 29.963 L 56.663 29.963 L 59.963 11.213 L 68.963 11.213 C 72.363 11.213 74.063 12.793 74.063 15.953 C 74.063 17.453 73.853 18.808 73.433 20.018 C 73.013 21.228 72.548 22.188 72.038 22.898 C 71.528 23.608 70.828 24.208 69.938 24.698 C 69.048 25.188 68.023 25.433 66.863 25.433 Z M 64.793 16.013 L 63.983 20.633 L 65.303 20.633 C 65.983 20.633 66.498 20.558 66.848 20.408 C 67.198 20.258 67.423 19.913 67.523 19.373 C 67.783 17.893 67.913 17.083 67.913 16.943 C 67.913 16.563 67.763 16.313 67.463 16.193 C 67.163 16.073 66.713 16.013 66.113 16.013 Z M 85.252 29.963 L 73.852 29.963 L 77.152 11.213 L 82.852 11.213 L 80.392 25.163 L 86.092 25.163 Z M 89.391 29.963 L 83.391 29.963 L 91.281 11.213 L 100.101 11.213 L 101.421 29.963 L 95.391 29.963 L 95.271 26.993 L 90.561 26.993 Z M 94.521 16.973 L 92.421 22.223 L 94.821 22.223 L 94.821 16.973 Z M 109.01 11.213 L 109.4 17.813 L 109.61 17.813 L 112.37 11.213 L 118.67 11.213 L 111.11 24.863 L 110.24 29.963 L 104.54 29.963 L 105.41 24.863 L 102.71 11.213 Z M 129.109 22.883 L 123.409 22.883 L 123.019 25.163 L 130.009 25.163 L 129.169 29.963 L 116.479 29.963 L 119.779 11.213 L 132.319 11.213 L 130.759 16.013 L 124.609 16.013 L 124.189 18.533 L 129.889 18.533 Z M 147.918 29.963 L 141.648 29.963 L 140.268 24.383 L 139.038 24.383 L 138.078 29.963 L 132.378 29.963 L 135.678 11.213 L 144.678 11.213 C 148.098 11.213 149.808 12.743 149.808 15.803 C 149.808 17.063 149.618 18.263 149.238 19.403 C 148.538 21.563 147.438 23.003 145.938 23.723 Z M 140.508 16.013 L 139.848 19.763 L 141.168 19.763 C 141.848 19.763 142.363 19.688 142.713 19.538 C 143.063 19.388 143.303 18.958 143.433 18.248 C 143.563 17.538 143.628 17.103 143.628 16.943 C 143.628 16.543 143.473 16.288 143.163 16.178 C 142.853 16.068 142.348 16.013 141.648 16.013 Z M 149.806 29.633 L 151.486 24.683 C 153.166 25.143 154.706 25.373 156.106 25.373 C 157.506 25.373 158.636 25.313 159.496 25.193 L 159.736 23.693 L 157.246 23.453 C 155.346 23.273 154.001 22.843 153.211 22.163 C 152.421 21.483 152.026 20.523 152.026 19.283 C 152.026 18.743 152.086 18.143 152.206 17.483 C 152.666 14.923 153.501 13.163 154.711 12.203 C 155.921 11.243 157.796 10.763 160.336 10.763 C 162.876 10.763 165.116 11.013 167.056 11.513 L 165.496 16.313 C 163.756 16.013 162.356 15.863 161.296 15.863 C 160.236 15.863 159.336 15.913 158.596 16.013 L 158.356 17.483 L 160.366 17.693 C 162.406 17.913 163.856 18.398 164.716 19.148 C 165.576 19.898 166.006 20.903 166.006 22.163 C 166.006 23.443 165.726 24.763 165.166 26.123 C 164.886 26.823 164.581 27.408 164.251 27.878 C 163.921 28.348 163.501 28.748 162.991 29.078 C 162.481 29.408 162.016 29.658 161.596 29.828 C 161.176 29.998 160.646 30.123 160.006 30.203 C 159.066 30.343 157.916 30.413 156.556 30.413 C 154.076 30.413 151.826 30.153 149.806 29.633 Z" style="white-space: pre; fill: rgb(255, 255, 255);"/>
  <path d="M 38.742 13.182 C 40.542 13.182 41.999 11.725 41.999 9.925 C 41.999 8.126 40.542 6.669 38.742 6.669 C 36.943 6.669 35.486 8.126 35.486 9.925 C 35.486 11.725 36.943 13.182 38.742 13.182 Z M 40.976 14.112 L 40.734 14.112 C 40.13 14.403 39.458 14.578 38.742 14.578 C 38.027 14.578 37.358 14.403 36.751 14.112 L 36.51 14.112 C 34.661 14.112 33.16 15.613 33.16 17.462 L 33.16 18.299 C 33.16 19.069 33.785 19.695 34.556 19.695 L 42.929 19.695 C 43.7 19.695 44.325 19.069 44.325 18.299 L 44.325 17.462 C 44.325 15.613 42.825 14.112 40.976 14.112 Z M 47.117 13.182 C 48.657 13.182 49.907 11.931 49.907 10.39 C 49.907 8.849 48.657 7.599 47.117 7.599 C 45.575 7.599 44.325 8.849 44.325 10.39 C 44.325 11.931 45.575 13.182 47.117 13.182 Z M 48.512 14.112 L 48.402 14.112 C 47.997 14.252 47.57 14.345 47.117 14.345 C 46.663 14.345 46.235 14.252 45.831 14.112 L 45.721 14.112 C 45.128 14.112 44.581 14.284 44.101 14.56 C 44.81 15.324 45.255 16.34 45.255 17.462 L 45.255 18.578 C 45.255 18.643 45.241 18.704 45.238 18.764 L 50.373 18.764 C 51.143 18.764 51.768 18.138 51.768 17.369 C 51.768 15.568 50.312 14.112 48.512 14.112 Z" style="fill: rgb(221, 221, 221);"/>
  <path d="M 38.655 26.666 C 40.498 26.666 41.988 28.157 41.988 29.999 C 41.988 31.84 40.498 33.331 38.655 33.331 C 36.814 33.331 35.323 31.84 35.323 29.999 C 35.323 28.157 36.814 26.666 38.655 26.666 Z M 40.941 25.714 L 40.693 25.714 C 40.075 25.416 39.388 25.238 38.655 25.238 C 37.924 25.238 37.239 25.416 36.617 25.714 L 36.371 25.714 C 34.479 25.714 32.943 24.179 32.943 22.286 L 32.943 21.429 C 32.943 20.641 33.583 20.001 34.371 20.001 L 42.94 20.001 C 43.729 20.001 44.368 20.641 44.368 21.429 L 44.368 22.286 C 44.368 24.179 42.833 25.714 40.941 25.714 Z M 47.225 26.666 C 48.802 26.666 50.081 27.946 50.081 29.523 C 50.081 31.1 48.802 32.379 47.225 32.379 C 45.647 32.379 44.368 31.1 44.368 29.523 C 44.368 27.946 45.647 26.666 47.225 26.666 Z M 48.653 25.714 L 48.54 25.714 C 48.126 25.571 47.689 25.476 47.225 25.476 C 46.76 25.476 46.323 25.571 45.909 25.714 L 45.797 25.714 C 45.19 25.714 44.63 25.538 44.139 25.256 C 44.865 24.474 45.32 23.435 45.32 22.286 L 45.32 21.144 C 45.32 21.078 45.306 21.015 45.303 20.953 L 50.557 20.953 C 51.346 20.953 51.985 21.594 51.985 22.382 C 51.985 24.224 50.495 25.714 48.653 25.714 Z" style="fill: rgb(221, 221, 221);" transform="matrix(-1, 0, 0, -1, 84.928001, 53.332001)"/>
</svg>
